X:5
T:Peter's Old Mandola
C:Dave Roberts
Z:Anahata (anahata:treewind.co.uk) tradtunes 2003-1-17
M:6/8
K:D
"A"efe ecA | ABA cBA | efe ecA | cd^d "C"eg"Bm"f |
"A"efe ecA | ABA cBA | "A"cd^d "C"eg"Bm"f | "E"edB "A"A3 :|
|: "D"DED DFA | "G"B2A "D"d2e | f2f "G"g2g | "D"fed "A"cBA |
"D"DED DFA |"G"B2A "D"d2e | "Bm"f2f "A"gfe | "D"d3-d3 :|
